X: 32524
T: Planxty David
R: reel
M: 4/4
K: Dmajor
|:d4 c4|dedc dBGB|GABc dcde|g2fe dBG2:|
|:gagf gedB|edef g2a2|g2fe dBG2|ABAF G4:|
|:A3B AGFG|ABcd e2f2|g2fe dBG2|ABAF GABc:|

